actions/22x22-dark/labplot-xy-equation-curve.svg

<svg viewBox="0 0 22 22" xmlns="http://www.w3.org/2000/svg"><path d="m3 2v8.294922.205078 1 .205078 8.294922h1v-7.708984c.1129846.084944.2278285.157024.3398438.255859.74338.65593 1.4476293 1.566377 2.1308593 2.498047.68323.93168 1.3437503 1.882856 2.0566407 2.628906.7128897.74605 1.5143162 1.326172 2.4726562 1.326172.95833 0 1.757813-.580122 2.470703-1.326172s1.373411-1.697226 2.056641-2.628906c.68323-.93167 1.387469-1.842117 2.130859-2.498047.74338-.65592 1.498047-1.046875 2.341797-1.046875v-1c-.84375 0-1.598417-.390955-2.341797-1.046875-.74339-.65593-1.447629-1.5663769-2.130859-2.4980469-.68323-.93168-1.343751-1.8828562-2.056641-2.6289062s-1.512373-1.3261719-2.470703-1.3261719c-.95834 0-1.7597665.5801219-2.4726562 1.3261719-.7128904.74605-1.3734107 1.6972262-2.0566407 2.6289062-.68323.93167-1.3874794 1.8421169-2.1308593 2.4980469-.112528.0992875-.2264534.1725665-.3398438.2578125v-7.7109375zm8 2c .54166 0 1.115234.3573781 1.746094 1.0175781s1.282839 1.5840238 1.974609 2.5273438c.200979.2740635.417118.5425809.626953.8144531-.160673.0953026-.299554.2251355-.410156.3671875-.2287.29372-.402836.6577481-.566406 1.0800781-.080218.2071224-.147468.4615104-.220703.6933594h-2.583985c-.298383-1.5890448-.589025-3.180643-.849609-4.3828125-.13378-.61718-.259869-1.132365-.380859-1.515625-.044076-.1395906-.090232-.2469623-.138672-.3574219.276839-.1574627.543723-.2441406.802734-.2441406zm-1.5722656 1.0859375c.0935.32036.196427.7176606.3105468 1.2441406.2438403 1.1249424.5250208 2.6481015.8105468 4.1699219h-2.3320311c.1079981-.505288.210017-1.0249242.3066406-1.546875.2179-1.17703.4229206-2.340115.6503906-3.171875.0845-.30907.1698263-.5040025.2539063-.6953125zm-1.46875 1.5351563c-.1427098.6810851-.279563 1.4027409-.4179688 2.1503906-.1094134.5910364-.2238466 1.1791496-.3457031 1.7285156h-1.5917969c-.008318-.020297-.0149005-.044576-.0234375-.064453-.0792-.18443-.164055-.35108-.296875-.5058595.730671-.7053722 1.3812076-1.5489414 1.9941407-2.3847656.2332632-.3180853.45671-.6195368.6816406-.9238281zm7.8984376 2.5917968c.0485.0375.109992.0887019.195312.1699219.20261.19295.472937.4783144.779297.7773435.115258.1125.242199.226556.367188.339844h-2.001953c.035738-.103749.068905-.237624.105468-.332031.14399-.3717808.297729-.6661654.423828-.8281252.104671-.1344404.12475-.1248332.13086-.1269532zm-11.2382814 2.2871094h.25c.0265017.094647.0539303.158729.0800782.255859-.1061852-.092044-.2189329-.17254-.3300782-.255859zm1.3007813 0h1.0117187c-.041532.146461-.0773436.326772-.1210937.458984-.14055.42475-.2962432.768213-.4394531.976563-.0248001.036-.0270282.016269-.0488282.042969-.0115-.0344-.01965-.047938-.03125-.085938-.0984-.3207-.2040194-.761175-.3183594-1.203125-.0165694-.064045-.0358337-.125589-.0527343-.189453zm2.0449219 0h2.7773442c.264069 1.39112.530172 2.755152.787109 3.820312.15027.622921.296032 1.145556.445312 1.541016.0746.19773.147014.363192.246094.513672.011479.01743.033867.037743.046875.056641-.446777.370316-.866178.568359-1.267578.568359-.54167 0-1.1171869-.357378-1.7480469-1.017578s-1.2828396-1.584024-1.9746093-2.527344c-.1397139-.19052-.2918254-.376094-.4355469-.566406.1343757-.112361.2544644-.242607.3535156-.386719.23292-.33887.4072731-.755459.5644531-1.230469.0770359-.232803.1369821-.513457.2050782-.771484zm3.7949222 0h2.095703c-.109679.42816-.216251.864309-.314453 1.308594-.2383 1.07812-.448865 2.154272-.640625 2.945312-.0375.15448-.067596.229435-.103516.359375-.0946-.29874-.189812-.591603-.294922-1.027343-.237333-.983863-.490518-2.266959-.742187-3.585938zm3.125 0h2.488281c-.128291.094591-.256108.190246-.376953.296875-.85037.75033-1.583621 1.714873-2.275391 2.658203-.249625.340397-.488375.664433-.728515.988281.166953-.742859.33393-1.551756.52539-2.417968.115536-.522692.23841-1.042899.367188-1.525391z" fill="#f2f2f2"/></svg>

<svg xmlns="http://www.w3.org/2000/svg" viewBox="0 0 22 22">
  <defs id="defs3051">
    <style type="text/css" id="current-color-scheme">
      .ColorScheme-Text {
        color:#f2f2f2;
      }
      </style>
  </defs>
 <path 
     style="fill:currentColor;fill-opacity:1;stroke:none" 
     d="M 3 2 L 3 10.294922 L 3 10.5 L 3 11.5 L 3 11.705078 L 3 20 L 4 20 L 4 12.291016 C 4.1129846 12.37596 4.2278285 12.44804 4.3398438 12.546875 C 5.0832238 13.202805 5.7874731 14.113252 6.4707031 15.044922 C 7.1539331 15.976602 7.8144534 16.927778 8.5273438 17.673828 C 9.2402335 18.419878 10.04166 19 11 19 C 11.95833 19 12.757813 18.419878 13.470703 17.673828 C 14.183593 16.927778 14.844114 15.976602 15.527344 15.044922 C 16.210574 14.113252 16.914813 13.202805 17.658203 12.546875 C 18.401583 11.890955 19.15625 11.5 20 11.5 L 20 10.5 C 19.15625 10.5 18.401583 10.109045 17.658203 9.453125 C 16.914813 8.797195 16.210574 7.8867481 15.527344 6.9550781 C 14.844114 6.0233981 14.183593 5.0722219 13.470703 4.3261719 C 12.757813 3.5801219 11.95833 3 11 3 C 10.04166 3 9.2402335 3.5801219 8.5273438 4.3261719 C 7.8144534 5.0722219 7.1539331 6.0233981 6.4707031 6.9550781 C 5.7874731 7.8867481 5.0832237 8.797195 4.3398438 9.453125 C 4.2273158 9.5524125 4.1133904 9.6256915 4 9.7109375 L 4 2 L 3 2 z M 11 4 C 11.54166 4 12.115234 4.3573781 12.746094 5.0175781 C 13.376954 5.6777781 14.028933 6.6016019 14.720703 7.5449219 C 14.921682 7.8189854 15.137821 8.0875028 15.347656 8.359375 C 15.186983 8.4546776 15.048102 8.5845105 14.9375 8.7265625 C 14.7088 9.0202825 14.534664 9.3843106 14.371094 9.8066406 C 14.290876 10.013763 14.223626 10.268151 14.150391 10.5 L 11.566406 10.5 C 11.268023 8.9109552 10.977381 7.319357 10.716797 6.1171875 C 10.583017 5.5000075 10.456928 4.9848225 10.335938 4.6015625 C 10.291862 4.4619719 10.245706 4.3546002 10.197266 4.2441406 C 10.474105 4.0866779 10.740989 4 11 4 z M 9.4277344 5.0859375 C 9.5212344 5.4062975 9.6241614 5.8035981 9.7382812 6.3300781 C 9.9821215 7.4550205 10.263302 8.9781796 10.548828 10.5 L 8.2167969 10.5 C 8.324795 9.994712 8.4268139 9.4750758 8.5234375 8.953125 C 8.7413375 7.776095 8.9463581 6.61301 9.1738281 5.78125 C 9.2583281 5.47218 9.3436544 5.2772475 9.4277344 5.0859375 z M 7.9589844 6.6210938 C 7.8162746 7.3021789 7.6794214 8.0238347 7.5410156 8.7714844 C 7.4316022 9.3625208 7.317169 9.950634 7.1953125 10.5 L 5.6035156 10.5 C 5.5951976 10.479703 5.5886151 10.455424 5.5800781 10.435547 C 5.5008781 10.251117 5.4160231 10.084467 5.2832031 9.9296875 C 6.0138741 9.2243153 6.6644107 8.3807461 7.2773438 7.5449219 C 7.510607 7.2268366 7.7340538 6.9253851 7.9589844 6.6210938 z M 15.857422 9.2128906 C 15.905922 9.2503906 15.967414 9.3015925 16.052734 9.3828125 C 16.255344 9.5757625 16.525671 9.8611269 16.832031 10.160156 C 16.947289 10.272656 17.07423 10.386712 17.199219 10.5 L 15.197266 10.5 C 15.233004 10.396251 15.266171 10.262376 15.302734 10.167969 C 15.446724 9.7961882 15.600463 9.5018036 15.726562 9.3398438 C 15.831233 9.2054034 15.851312 9.2150106 15.857422 9.2128906 z M 4.6191406 11.5 L 4.8691406 11.5 C 4.8956423 11.594647 4.9230709 11.658729 4.9492188 11.755859 C 4.8430336 11.663815 4.7302859 11.583319 4.6191406 11.5 z M 5.9199219 11.5 L 6.9316406 11.5 C 6.8901086 11.646461 6.854297 11.826772 6.8105469 11.958984 C 6.6699969 12.383734 6.5143037 12.727197 6.3710938 12.935547 C 6.3462937 12.971547 6.3440656 12.951816 6.3222656 12.978516 C 6.3107656 12.944116 6.3026156 12.930578 6.2910156 12.892578 C 6.1926156 12.571878 6.0869962 12.131403 5.9726562 11.689453 C 5.9560868 11.625408 5.9368225 11.563864 5.9199219 11.5 z M 7.9648438 11.5 L 10.742188 11.5 C 11.006257 12.89112 11.27236 14.255152 11.529297 15.320312 C 11.679567 15.943233 11.825329 16.465868 11.974609 16.861328 C 12.049209 17.059058 12.121623 17.22452 12.220703 17.375 C 12.232182 17.39243 12.25457 17.412743 12.267578 17.431641 C 11.820801 17.801957 11.4014 18 11 18 C 10.45833 18 9.8828131 17.642622 9.2519531 16.982422 C 8.6210931 16.322222 7.9691135 15.398398 7.2773438 14.455078 C 7.1376299 14.264558 6.9855184 14.078984 6.8417969 13.888672 C 6.9761726 13.776311 7.0962613 13.646065 7.1953125 13.501953 C 7.4282325 13.163083 7.6025856 12.746494 7.7597656 12.271484 C 7.8368015 12.038681 7.8967477 11.758027 7.9648438 11.5 z M 11.759766 11.5 L 13.855469 11.5 C 13.74579 11.92816 13.639218 12.364309 13.541016 12.808594 C 13.302716 13.886714 13.092151 14.962866 12.900391 15.753906 C 12.862891 15.908386 12.832795 15.983341 12.796875 16.113281 C 12.702275 15.814541 12.607063 15.521678 12.501953 15.085938 C 12.26462 14.102075 12.011435 12.818979 11.759766 11.5 z M 14.884766 11.5 L 17.373047 11.5 C 17.244756 11.594591 17.116939 11.690246 16.996094 11.796875 C 16.145724 12.547205 15.412473 13.511748 14.720703 14.455078 C 14.471078 14.795475 14.232328 15.119511 13.992188 15.443359 C 14.159141 14.7005 14.326118 13.891603 14.517578 13.025391 C 14.633114 12.502699 14.755988 11.982492 14.884766 11.5 z "
     class="ColorScheme-Text"
     />
</svg>
